X: 1
T: Uncle Henry's Reel
O: Canada
R: reel
Z: 2009 John Chambers <jc:trillian.mit.edu>
F: http://www.fiddleicious.com/pdf/Uncle%20Henry's%20Reel.pdf
B: Hinds/Hebert "Grumbling Old Woman" 1981 p.12
B: Messer "Don Messer’s Square Dance Tunes" 1952 (Canadian Music Sales, out‑of‑print)
M: C|
L: 1/8
K: A
|: A2ce Aece | aAga faec | A2ce Aece | dcBA GBEG \
|  A2ce Aece | aAgA faec | defg agaf |1 edcB A2AA :|2 edcB A2GF ||
|: A2ce Aece | B2^df Bfdf | e2ge bgeg | agae faec \
|  agae faec | defg agaf | eabg edcB | A2AA A4 :|
